packages/core/src/svgs/tokens/mono/GHNY.svg

<svg width="24" height="24" viewBox="0 0 24 24" fill="none" xmlns="http://www.w3.org/2000/svg">
<path fill-rule="evenodd" clip-rule="evenodd" d="M2.08681 11.9764L7.30461 2.90555H7.3105C7.41638 2.70553 7.62227 2.58789 7.83992 2.58789H16.1578C16.3755 2.58789 16.5755 2.70553 16.6931 2.90555L21.9109 11.9764C22.0344 12.194 22.0286 12.4588 21.8992 12.6647L16.6931 21.1179C16.5814 21.2943 16.3814 21.412 16.1696 21.412H7.82816C7.6164 21.412 7.42227 21.3002 7.30461 21.112L2.09859 12.6647C1.96917 12.4588 1.96917 12.1882 2.08681 11.9764ZM7.66816 6.47312C7.58668 6.6618 7.54315 6.86467 7.54009 7.07016C7.54009 7.92313 8.24599 8.4702 9.12837 8.4702H9.45187C9.8049 8.4702 10.2343 8.71727 10.2343 9.05845V10.2055C10.2343 10.5467 9.8049 10.8232 9.45187 10.8232H5.94004C5.06355 10.8232 4.35176 11.4409 4.35176 12.2938C4.35176 13.1468 5.05767 13.7645 5.94004 13.7645H11.3638C11.7166 13.7645 11.999 14.0116 11.999 14.3527V14.7703C11.999 15.1175 11.7166 15.5292 11.3638 15.5292H9.13426C8.25188 15.5292 7.58714 16.1469 7.58714 16.9998C7.58714 17.8528 8.25188 18.4704 9.13426 18.4704H14.8639C15.7462 18.4704 16.4109 17.8528 16.4109 16.9998C16.4109 16.1469 15.7521 15.5292 14.8698 15.5292H14.5462C14.1932 15.5292 13.7639 15.1116 13.7639 14.7703V14.3527C13.7639 14.0116 14.1932 13.7645 14.5462 13.7645H18.058C18.9345 13.7645 19.6464 13.1468 19.6464 12.2938C19.6464 11.4409 18.9345 10.8232 18.0521 10.8232H12.6344C12.2815 10.8232 11.999 10.5467 11.999 10.2055V9.05845C11.999 8.71727 12.2815 8.4702 12.6344 8.4702H14.8698C15.7521 8.4702 16.458 7.92313 16.458 7.07016C16.458 6.21719 15.7462 5.52895 14.8639 5.52895H9.12837C8.92288 5.52583 8.71879 5.56322 8.52775 5.639C8.33672 5.71477 8.16247 5.82743 8.01498 5.97055C7.8675 6.11367 7.74965 6.28445 7.66816 6.47312Z" fill="white"/>
</svg>

<svg xmlns="http://www.w3.org/2000/svg" width="24" height="24" fill="none" viewBox="0 0 24 24">
    <path fill="#fff" fill-rule="evenodd" d="m2.087 11.976 5.218-9.07h.006a.6.6 0 0 1 .529-.318h8.318a.62.62 0 0 1 .535.318l5.218 9.07a.67.67 0 0 1-.012.689l-5.206 8.453a.63.63 0 0 1-.523.294H7.828a.62.62 0 0 1-.523-.3l-5.206-8.447a.69.69 0 0 1-.012-.689m5.581-5.503a1.6 1.6 0 0 0-.128.597c0 .853.706 1.4 1.588 1.4h.324c.353 0 .782.247.782.588v1.148c0 .34-.43.617-.782.617H5.94c-.876 0-1.588.618-1.588 1.47 0 .854.706 1.472 1.588 1.472h5.424c.353 0 .635.247.635.588v.417c0 .348-.282.76-.635.76h-2.23c-.882 0-1.547.617-1.547 1.47s.665 1.47 1.547 1.47h5.73c.882 0 1.547-.617 1.547-1.47s-.659-1.47-1.541-1.47h-.324c-.353 0-.782-.418-.782-.76v-.417c0-.341.43-.588.782-.588h3.512c.877 0 1.588-.618 1.588-1.471s-.712-1.47-1.594-1.47h-5.418a.625.625 0 0 1-.635-.618V9.058c0-.34.282-.588.635-.588h2.236c.882 0 1.588-.547 1.588-1.4s-.712-1.541-1.594-1.541H9.128a1.56 1.56 0 0 0-1.46.944" clip-rule="evenodd"/>
</svg>
